symbols/web/corporate_fare/materialsymbolsoutlined/corporate_fare_wght700gradN25_48px.svg

<svg xmlns="http://www.w3.org/2000/svg" height="48" width="48"><path d="M3.5 43V5.85h21.15v8h19.9V43Zm4-4.05h13.15v-5.1H7.5Zm0-8h13.15v-5.1H7.5Zm0-8h13.15v-5.1H7.5Zm0-8h13.15v-5.1H7.5Zm16 24h17v-21.1h-17Zm3.9-13.1v-2.9h8v2.9Zm0 8v-2.9h8v2.9Z"/></svg>

<svg xmlns="http://www.w3.org/2000/svg" height="48" width="48"><path d="M3.5 43V5.85H24.65V13.85H44.55V43ZM7.5 38.95H20.65V33.85H7.5ZM7.5 30.95H20.65V25.85H7.5ZM7.5 22.95H20.65V17.85H7.5ZM7.5 14.95H20.65V9.85H7.5ZM23.5 38.95H40.5V17.85H23.5ZM27.4 25.85V22.95H35.4V25.85ZM27.4 33.85V30.95H35.4V33.85Z"/></svg>
